X: 346
T: Bir An Bakışın
C: Ömer Sami Güpgüp
O: Turkey
F: http://compmusic.upf.edu/node/140
N: hicaz--sarki--aksak--bir_an--omer_sami_gupgup
N: makam= hicaz
N: form= sarki
N: usul= aksak = 9/8
M: 9/8
L: 1/16
K: C _7/8B ^f ^c 
Q: 1/4=168
%%MIDI tuningsystem comma53
a4 a2a2 a=bag f4 z2 | g4g2 a2=f3ed4z2  | \
w:  ARANAĞME  |   | 
e3f g2=f2 e2d2 c2B2 A2 | 
w:   | 
A6 Bcde fga4z2  | a4 a2a2 a=bag f4 z2 | \
w:   |  ARANAĞME  | 
g4g2 a2=f3ed4z2  | 
w:   | 
e3f g2=f2 e2d2 c2B2 A2 | A6 BccB BAA4z2  | \
w:   |   | 
A4 d4 d2d2 c6 | 
w:  Bir  an  ba kı şın   | 
d4e2 =f2ed cBA4z2  | d4 g2g2 =f2e2 fed2 dc | \
w:  bir  gü lü şün   |  öm re  be del  | 
d6 A2BA BcA4z2  | 
w:  dir   SAZ  | 
A4 d4 d2d2 c6 | d4e2 =f2ed cBA4z2  | \
w:  Bir  an  ba kı şın   |  bir  gü lü şün   | 
d4 g2g2 =f2e2 fed2 dc | 
w:  öm re  be del  | 
d6 A2BA Bcd4z2  | d4 d4 e=fed c6 | c4c2 e2dc BAB4A2  | 
w:  dir   SAZ  |  Sev dâ yı  *  bi *  len   |  kal bi mi  bir   | 
d4 d2c2 B2A2 A2B2 dc | c6 cdcB ABc6  | \
w:  lah za  se vin  |  dir   SAZ  | 
d4 d4 e=fed c6 | 
w:  Sev dâ yı  *  bi *  len   | 
c4c2 d2cB BAB4A2  | d2c2 B2A2 G2F2 G2A2 BA | \
w:  kal bi mi  bir   |  lah *  za  se vin  | 
A6 a=bag fga6  | 
w:  dir   SAZ  | 
g4 a4 a2=ba a4 z2 | f3^ef2 g2ag fef4z2  | \
w:  Ar tık  ye ti *  şir   |  sabr_ *  e de mem   | 
d3e f2g2 a2b2 b2a2 g2 | 
w:  aş *  kı  de rin  | 
b6 a2c'2 bab4a2  | a3g g4 g2g2 g2f2 e2 | \
w:  dir   SAZ  |  Ar *  tık  ye ti şir   | 
f3ef2 g2ag =fed4z2  | 
w:  sabr_ *  e de mem   | 
A4 a2g2 f2e2 e2=fe dc | d6 A2BA Bcd4z2  | \
w:  aş kı  de rin  |  dir   SAZ  | 
d4 d4 e=fed c6 | 
w:  Sev dâ yı  *  bi *  len   | 
c4c2 e2dc BAB4A2  | d4 d2c2 B2A2 A2B2 dc | \
w:  kal bi mi  bir   |  lah za  se vin  | 
c6 cdcB ABc6  | 
w:  dir   SAZ  | 
d4 d4 e=fed c6 | c4c2 d2cB BAB4A2  | \
w:  Sev dâ yı  *  bi *  len   |  kal bi mi  bir   | 
d2c2 B2A2 G2F2 G2A2 BA | 
w:  lah *  za  se vin  | 
A6 |
w:  dir    | 


